file/electronic-arts.svg

<svg clip-rule="evenodd" fill-rule="evenodd" stroke-linejoin="round" stroke-miterlimit="1.41421" viewBox="0 0 560 400" xmlns="http://www.w3.org/2000/svg"><path d="m200.006 40c-60.106 0-109.006 48.9-109.006 109.008s48.9 109.009 109.006 109.009c60.107 0 109.006-48.9 109.006-109.009 0-60.108-48.899-109.008-109.006-109.008zm0 203.896c-52.322 0-94.888-42.566-94.888-94.89 0-52.322 42.565-94.889 94.888-94.889 52.321 0 94.889 42.567 94.889 94.889 0 52.324-42.568 94.89-94.889 94.89zm37.034-126.684h.86v-4.167h1.551v-.735h-3.958v.735h1.547zm3.783-3.788h.016l1.36 3.788h.7l1.358-3.788h.021v3.788h.808v-4.901h-1.188l-1.314 3.834h-.021l-1.347-3.834h-1.207v4.901h.814zm-24.757-1.118h-53.625l-8.137 13.076h53.563zm10.959.125-32.782 52.2h-36.363l8.389-13.087h21.796l8.324-13.08h-50.386l-8.324 13.08h11.938l-16.562 26.129h69.114l25.528-40.258 9.308 14.129h-8.393l-7.948 13.087h24.854l8.631 13.042h15.854z" fill-rule="nonzero" transform="matrix(1.37607 0 0 1.37607 4.77754 -5.04628)"/></svg>

<?xml version="1.0" encoding="UTF-8" standalone="no"?>
<!DOCTYPE svg PUBLIC "-//W3C//DTD SVG 1.1//EN" "http://www.w3.org/Graphics/SVG/1.1/DTD/svg11.dtd">
<svg width="100%" height="100%" viewBox="0 0 560 400" version="1.1" xmlns="http://www.w3.org/2000/svg" xmlns:xlink="http://www.w3.org/1999/xlink" xml:space="preserve" xmlns:serif="http://www.serif.com/" style="fill-rule:evenodd;clip-rule:evenodd;stroke-linejoin:round;stroke-miterlimit:1.41421;">
    <g id="ea_1_" transform="matrix(1.37607,0,0,1.37607,4.77754,-5.04628)">
        <path d="M200.006,40C139.9,40 91,88.9 91,149.008C91,209.116 139.9,258.017 200.006,258.017C260.113,258.017 309.012,209.117 309.012,149.008C309.012,88.9 260.113,40 200.006,40ZM200.006,243.896C147.684,243.896 105.118,201.33 105.118,149.006C105.118,96.684 147.683,54.117 200.006,54.117C252.327,54.117 294.895,96.684 294.895,149.006C294.895,201.33 252.327,243.896 200.006,243.896ZM237.04,117.212L237.9,117.212L237.9,113.045L239.451,113.045L239.451,112.31L235.493,112.31L235.493,113.045L237.04,113.045L237.04,117.212ZM240.823,113.424L240.839,113.424L242.199,117.212L242.899,117.212L244.257,113.424L244.278,113.424L244.278,117.212L245.086,117.212L245.086,112.311L243.898,112.311L242.584,116.145L242.563,116.145L241.216,112.311L240.009,112.311L240.009,117.212L240.823,117.212L240.823,113.424ZM216.066,112.306L162.441,112.306L154.304,125.382L207.867,125.382L216.066,112.306ZM227.025,112.431L194.243,164.631L157.88,164.631L166.269,151.544L188.065,151.544L196.389,138.464L146.003,138.464L137.679,151.544L149.617,151.544L133.055,177.673L202.169,177.673L227.697,137.415L237.005,151.544L228.612,151.544L220.664,164.631L245.518,164.631L254.149,177.673L270.003,177.673L227.025,112.431Z" style="fill-rule:nonzero;"/>
    </g>
</svg>
